Origami/24x24/apps/applications-interfacedesign.svg

<svg width="24" height="24" version="1" xmlns="http://www.w3.org/2000/svg">
 <path d="m2 5.5v14.5c0 0.5544 0.445625 1 1 1h18.0005c0.554 0 0.9995-0.4455 0.9995-1v-14.5z" style="fill:#c7c7c7"/>
 <rect x="4" y="15.5" width="16" height="2" rx=".762" ry=".829" style="opacity:.2"/>
 <path d="M 3,3 C 2.4456,3 2,3.44575 2,3.99975 V 6 H 22 V 3.99975 C 22,3.44575 21.5545,3 21,3 Z" style="fill:#5a6367"/>
 <path d="m3 3c-0.5544 0-1 0.446-1 1v0.5c0-0.554 0.4456-1 1-1h18c0.5544 0 1 0.446 1 1v-0.5c0-0.554-0.4455-1-1-1z" style="fill:#ffffff;opacity:.1"/>
 <path d="m2 20v0.5c0 0.5544 0.445625 1 1 1h18.001c0.5535 0 0.999-0.4455 0.999-1v-0.5c0 0.5544-0.445275 1-0.999 1h-18.001c-0.5544 0-1-0.4455-1-1z" style="opacity:.2"/>
 <rect x="4" y="15" width="16" height="2" rx=".762" ry=".829" style="fill:#ffffff"/>
 <path d="m18 16.5c0 1.655998-1.344002 3-3 3-1.656 0-3-1.344002-3-3 0-1.656 1.344-3 3-3 1.655998 0 3 1.344 3 3z" style="fill-rule:evenodd;opacity:.1"/>
 <path d="m18 16c0 1.655998-1.344002 3-3 3-1.656 0-3-1.344002-3-3 0-1.656 1.344-3 3-3 1.655998 0 3 1.344 3 3z" style="fill-rule:evenodd;fill:#5294e2"/>
 <circle cx="5" cy="8.5" r="1" style="opacity:.2"/>
 <circle cx="5" cy="8" r="1" style="fill:#ffffff"/>
 <rect x="8" y="11.5" width="2" height="2" rx=".315" ry=".344" style="opacity:.1"/>
 <rect x="8" y="11" width="2" height="2" rx=".315" ry=".344" style="fill:#5294e2"/>
 <rect x="8" y="7.5" width="2" height="2" rx=".315" ry=".344" style="opacity:.2"/>
 <rect x="8" y="7" width="2" height="2" rx=".315" ry=".344" style="fill:#ffffff"/>
 <circle cx="5" cy="12.5" r="1" style="opacity:.1"/>
 <circle cx="5" cy="12" r="1" style="fill:#5294e2"/>
</svg>

<svg xmlns="http://www.w3.org/2000/svg" width="24" height="24" version="1">
 <path style="fill:#c7c7c7" d="M 2,5.5 V 20 c 0,0.5544 0.445625,1 1,1 H 21.0005 C 21.5545,21 22,20.5545 22,20 V 5.5 Z"/>
 <rect style="opacity:0.2" width="16" height="2" x="4" y="15.5" rx=".762" ry=".829"/>
 <path style="fill:#5a6367" d="M 3,3 C 2.4456,3 2,3.44575 2,3.99975 V 6 H 22 V 3.99975 C 22,3.44575 21.5545,3 21,3 Z"/>
 <path style="opacity:0.1;fill:#ffffff" d="M 3,3 C 2.4456,3 2,3.446 2,4 v 0.5 c 0,-0.554 0.4456,-1 1,-1 h 18 c 0.5544,0 1,0.446 1,1 V 4 C 22,3.446 21.5545,3 21,3 Z"/>
 <path style="opacity:0.2" d="m 2,20 v 0.5 c 0,0.5544 0.445625,1 1,1 H 21.001 C 21.5545,21.5 22,21.0545 22,20.5 V 20 c 0,0.5544 -0.445275,1 -0.999,1 H 3 C 2.4456,21 2,20.5545 2,20 Z"/>
 <rect style="fill:#ffffff" width="16" height="2" x="4" y="15" rx=".762" ry=".829"/>
 <path style="opacity:0.1;fill-rule:evenodd" d="m 18,16.5 c 0,1.655998 -1.344002,3 -3,3 -1.656,0 -3,-1.344002 -3,-3 0,-1.656 1.344,-3 3,-3 1.655998,0 3,1.344 3,3 z"/>
 <path style="fill:#525252;fill-rule:evenodd" d="m 18,16 c 0,1.655998 -1.344002,3 -3,3 -1.656,0 -3,-1.344002 -3,-3 0,-1.656 1.344,-3 3,-3 1.655998,0 3,1.344 3,3 z"/>
 <circle style="opacity:0.2" cx="5" cy="8.5" r="1"/>
 <circle style="fill:#ffffff" cx="5" cy="8" r="1"/>
 <rect style="opacity:0.1" width="2" height="2" x="8" y="11.5" rx=".315" ry=".344"/>
 <rect style="fill:#525252" width="2" height="2" x="8" y="11" rx=".315" ry=".344"/>
 <rect style="opacity:0.2" width="2" height="2" x="8" y="7.5" rx=".315" ry=".344"/>
 <rect style="fill:#ffffff" width="2" height="2" x="8" y="7" rx=".315" ry=".344"/>
 <circle style="opacity:0.1" cx="5" cy="12.5" r="1"/>
 <circle style="fill:#525252" cx="5" cy="12" r="1"/>
</svg>
